X:1
T:23
L:1/8
M:2/4
K:Gmin
V:1 treble nm="Piano" snm="Pno."
V:1
 z/ AA/ GA | z/ F=E/ D2 | z/ D=E/ FG | z/ AA/ GA | z/ FF/ =E/D/E | z/ DD/ D2 | z/ AB/ cd | %7
 z/ c/B/d/ c/B/A | z/ AB/ cd | z/ cB/ A2 | c4 | z/ dd/ d/=e/d | z/ c/B/d/ c/B/A | z/ AB/ cd | %14
 z/ cB/ A2 | %15

